X:564
T: Tianjun dailai taipingchun
N: C1984
O: China, Guangxi Guiping
S: II, 476, 1)]
R: Shange, Kejia shange]
M: 2/4
L: 1/16
K: D
f2e2f2e2 | f2f2efe2 | B2dfe2d2 | edB2d4
B2B2d2ef | e2d2B4 | B2B2d2ef | e6d2 | B2d2BdBA | B8

